X: 35098
T: Rolling Waves, The
R: jig
M: 6/8
K: Dmajor
|:FEF DED|D2d cAG|FF/F/F FED|A2F GFE|
FEF DED|D2d cAG|FF/F/F GFG|A2F GFE:|
D2d cAd|cAd cAG|F2d cAG|FF/F/F GFE|
D2d cde|fed cAG|FF/F/F GFG|A2F GFE:|

